2/svg/1f5a5.svg

<svg xmlns="http://www.w3.org/2000/svg" viewBox="0 0 45 45" enable-background="new 0 0 45 45"><defs><clipPath id="a"><path d="M0 36h36V0H0v36z"/></clipPath></defs><g><g><g clip-path="url(#a)" transform="matrix(1.25 0 0 -1.25 0 45)"><g><path fill="#ccd6dd" d="M36 14c0-2.2-1.8-4-4-4H4c-2.2 0-4 1.8-4 4v18c0 2.2 1.8 4 4 4h28c2.2 0 4-1.8 4-4V14z"/></g><path fill="#5dadec" d="M32 14H4v18h28V14z"/><path fill="#ccd6dd" d="M23 4H13v6h10V4z"/><path fill="#9aaab4" d="M23 8H13v2h10V8z"/><g><path fill="#e1e8ed" d="M36 3c0 1.66-1.34 3-3 3H3C1.34 6 0 4.66 0 3s1.34-3 3-3h30c1.66 0 3 1.34 3 3"/></g><path fill="#f5f8fa" d="M5 2H3v2h2V2z"/><path fill="#f5f8fa" d="M9 2H7v2h2V2z"/><path fill="#f5f8fa" d="M13 2h-2v2h2V2z"/><path fill="#f5f8fa" d="M17 2h-2v2h2V2z"/><path fill="#f5f8fa" d="M21 2h-2v2h2V2z"/><path fill="#f5f8fa" d="M25 2h-2v2h2V2z"/><path fill="#f5f8fa" d="M29 2h-2v2h2V2z"/><path fill="#f5f8fa" d="M33 2h-2v2h2V2z"/></g></g></g></svg>

<?xml version="1.0" encoding="UTF-8" standalone="no"?><svg xmlns:dc="http://purl.org/dc/elements/1.1/" xmlns:cc="http://creativecommons.org/ns#" xmlns:rdf="http://www.w3.org/1999/02/22-rdf-syntax-ns#" xmlns:svg="http://www.w3.org/2000/svg" xmlns="http://www.w3.org/2000/svg" viewBox="0 0 45 45" style="enable-background:new 0 0 45 45;" xml:space="preserve" version="1.1" id="svg2"><metadata id="metadata8"><rdf:RDF><cc:Work rdf:about=""><dc:format>image/svg+xml</dc:format><dc:type rdf:resource="http://purl.org/dc/dcmitype/StillImage"/></cc:Work></rdf:RDF></metadata><defs id="defs6"><clipPath id="clipPath16" clipPathUnits="userSpaceOnUse"><path id="path18" d="M 0,36 36,36 36,0 0,0 0,36 Z"/></clipPath></defs><g transform="matrix(1.25,0,0,-1.25,0,45)" id="g10"><g id="g12"><g clip-path="url(#clipPath16)" id="g14"><g transform="translate(36,14)" id="g20"><path id="path22" style="fill:#ccd6dd;fill-opacity:1;fill-rule:nonzero;stroke:none" d="m 0,0 c 0,-2.209 -1.791,-4 -4,-4 l -28,0 c -2.209,0 -4,1.791 -4,4 l 0,18 c 0,2.209 1.791,4 4,4 l 28,0 c 2.209,0 4,-1.791 4,-4 L 0,0 Z"/></g><path id="path24" style="fill:#5dadec;fill-opacity:1;fill-rule:nonzero;stroke:none" d="M 32,14 4,14 4,32 32,32 32,14 Z"/><path id="path26" style="fill:#ccd6dd;fill-opacity:1;fill-rule:nonzero;stroke:none" d="m 23,4 -10,0 0,6 10,0 0,-6 z"/><path id="path28" style="fill:#9aaab4;fill-opacity:1;fill-rule:nonzero;stroke:none" d="m 23,8 -10,0 0,2 10,0 0,-2 z"/><g transform="translate(36,3)" id="g30"><path id="path32" style="fill:#e1e8ed;fill-opacity:1;fill-rule:nonzero;stroke:none" d="m 0,0 c 0,1.657 -1.343,3 -3,3 l -30,0 c -1.657,0 -3,-1.343 -3,-3 0,-1.657 1.343,-3 3,-3 l 30,0 c 1.657,0 3,1.343 3,3"/></g><path id="path34" style="fill:#f5f8fa;fill-opacity:1;fill-rule:nonzero;stroke:none" d="M 5,2 3,2 3,4 5,4 5,2 Z"/><path id="path36" style="fill:#f5f8fa;fill-opacity:1;fill-rule:nonzero;stroke:none" d="M 9,2 7,2 7,4 9,4 9,2 Z"/><path id="path38" style="fill:#f5f8fa;fill-opacity:1;fill-rule:nonzero;stroke:none" d="m 13,2 -2,0 0,2 2,0 0,-2 z"/><path id="path40" style="fill:#f5f8fa;fill-opacity:1;fill-rule:nonzero;stroke:none" d="m 17,2 -2,0 0,2 2,0 0,-2 z"/><path id="path42" style="fill:#f5f8fa;fill-opacity:1;fill-rule:nonzero;stroke:none" d="m 21,2 -2,0 0,2 2,0 0,-2 z"/><path id="path44" style="fill:#f5f8fa;fill-opacity:1;fill-rule:nonzero;stroke:none" d="m 25,2 -2,0 0,2 2,0 0,-2 z"/><path id="path46" style="fill:#f5f8fa;fill-opacity:1;fill-rule:nonzero;stroke:none" d="m 29,2 -2,0 0,2 2,0 0,-2 z"/><path id="path48" style="fill:#f5f8fa;fill-opacity:1;fill-rule:nonzero;stroke:none" d="m 33,2 -2,0 0,2 2,0 0,-2 z"/></g></g></g></svg>
